X:1
T:Wolfgang Amadeus Mozart (1756 - 1791)
T:Morgen kommt der Weihnachtsmann
T:Variationen
%%score { ( 1 4 5 6 ) | ( 2 3 ) }
L:1/8
M:2/4
K:C
V:1 treble nm="Piano"
V:4 treble 
V:5 treble 
V:6 treble 
V:2 bass 
V:3 bass 
V:1
"^Allegretto""^un  poco  non  legato" !1!c2 c2 | !4!g2 g2 | a2 a2 | g2 g2 | f2 f2 | e2 e2 | %6
 d2 !3!e/4d/4c/<d/e/ | c4 :: !4!g2 g2 | f2 f2 | e2 e2 | d2 d2 | !4!g2 g2 | f2 f2 | %14
 e2 f/4e/4d/<e/f/ | (e2 !1!d2) | !1!c2 c2 | g2 g2 | a2 a2 | g2 g2 | f2 f2 | e2 e2 | %22
 d2 e/4d/4c/<d/e/ | c4 ::[M:2/4]"^Var. I""^leggiero" !4!d/c/B/c/ B/c/B/!1!c/ | %25
 !4!a/g/^f/g/ f/g/f/!1!g/ | ^g/!1!a/c'/b/ d'/c'/b/a/ | (!2!a/g/)!3!e'/d'/ c'/!3!b/a/g/ | %28
 (!2!g/f/)!3!d'/c'/ b/!3!a/g/f/ | (!2!f/e/)!3!c'/b/ a/!4!g/f/e/ | (dagB) |1 c2 z2 :|2 c2 z2 |: %33
 !4!a/g/^f/g/ f/g/a/g/ | !4!g/=f/e/f/ e/f/g/f/ | !4!f/e/^d/e/ d/e/f/e/ | %36
 !4!e/=d/^c/d/ c/d/e/!1!d/ | !4!a/g/^f/!1!g/ !5!e'/c'/a/g/ | !4!g/=f/e/!1!f/ d'/b/g/f/ | %39
 !4!f/e/^d/!1!e/ c'/g/f/e/ | (!4!g>e) d2 | !4!d/c/B/c/ B/c/B/!1!c/ | !4!a/g/^f/g/ f/g/f/g/ | %43
 ^g/!1!a/c'/b/ d'/c'/b/a/ | !2!a/=g/!3!e'/d'/ c'/!3!b/a/g/ | (g/f/)!3!d'/c'/ b/a/g/f/ | %46
 (f/e/)!3!c'/b/ a/!4!g/f/e/ | (dagB) | c2 z2 ::[M:2/4]"^Var. II" c2 c2 | [cg]2 (([cg]2 | g2)) (f2 | %52
 (f2) (e2) | !3![cef]2) [Gdf]2 | [Gde]2 (([Ace]2 | [cd]2)) !4!!5![Bd]2 | c2 z2 :| [cg]2 [cg]2 | %58
 [cf]2 [Bf]2 | !4![ce]>d [ce]>f | e2 d2 | [cg]2 [cg]2 | [cf]2 [Bf]2 | f/4e/4d/<e/d/ [Ge]>f | %64
 (e2 d2) | c2 x7/4 x/4 | g2 !4![cg]2 | a2 a2 | g2 g2 | ^f2 !5!=f2 | e2 !5!e2 | [cd]2 x2 | c2 z2 :: %73
[M:2/4]"^Var. III" c2 z c | g2 z g | a2 z a | g2 z [ce] | z [ef] z [df] | z [de] z [ce] | %79
 z [cd] z [Bd] | c2 z2 :: g2 z (g | ^f2) z (=f | e2) z (_e | d2) z G | g2 z (g/^f/ | =f2) z (f/e/ | %87
 _e2) z (^f/g/ | d2) z (=f/d/ | c2) z (c/e/ | g2) z (g/e/ | a2) z (a/c'/ | g2) z (e/g/) | %93
 z (g/^f/) z (d/=f/) | z (f/e/) z (g/e/) | z (^c/d/) z (f/d/) | z (B/=c/) z2 :: %97
[M:2/4]"^Var. IV" [EGc] z [EGc] z | [ceg] z [Ace] z | [cga] z [cfa] z | [cfg] z [ceg] z | %101
 [Aef] z [Gdf] z | [Gde] z [Ace] z | [FAd] z [DFB] z | [EGc]2 z2 :: %105
 !1!G,/!2!^F,/!1!G,/F,/ G,/F,/G,/F,/ | G,/^F,/G,/F,/ !1!G,/A,/B,/G,/ | C/!1!B,/C/D/ E/!1!D/E/^F/ | %108
 G/^F/!1!G/!2!F/ !1!G/F/G/F/ | G/^F/G/F/ G/F/G/F/ | G/^F/G/F/ !1!G/A/B/G/ | %111
 c/!1!B/c/d/ e/!1!d/e/^f/ | !1!g/!4!a/!2!f/g/ e/!4!f/d/e/ | c z [EGc] z | [ceg] z [Ace] z | %115
 [cga] z [cfa] z | [cfg] z [ceg] z | [Aef] z [Gdf] z | [Gef] z [ceg] z | [FAd] z [DFB] z | %120
 [EGc]2 z2 ::[M:2/4]"^Var. V" CD/E/ !1!F/G/A/B/ | !1!c/d/e/f/ !1!g/a/b/c'/ | %123
 b/a/^g/!1!a/ !4!d'/c'/b/a/ | !4!a/g/^f/g/ z/ g/e'/g/ | z/ f/e'/f/ z/ f/d'/f/ | %126
 z/ e/d'/e/ z/ e/c'/e/ | z/ d/c'/d/ z/ d/b/d/ | [egc']2 z2 :| !1!g/c'/!5!e'/d'/ c'/b/a/!3!f/ | %130
 f/e/!4!d/c/ B/A/!3!G/F/ | .E.!4!e.f!3!^f | (g>e) d z | g/c'/e'/d'/ c'/b/a/g/ | %134
 =f/e/d/c/ B/A/G/F/ | .Ee.f^f | (g>e) d z | CD/E/ F/G/A/B/ | c/d/e/f/ g/a/b/c'/ | %139
 b/a/^g/!1!a/ d'/c'/b/a/ | !4!a/g/^f/g/ z/ g/e'/g/ | z/ =f/e'/f/ z/ f/d'/f/ | %142
 z/ e/d'/e/ z/ e/c'/e/ | z/ d/c'/d/ z/ d/b/d/ | [egc']2 z2 :| x4 |: %146
[K:Eb]"^Var. VI" .!1!c.d.e.!1!f | g2 (g2 | a4) | x2 x2 | !5!f4 | x4 | d4 | c2 z2 :: %154
 z !5!g!4!=a!5!g | ^f2 !5!=f2 | =e2 (!5!_e2 | e2) d2- | d2 !5!c2- | c2 =B2 | !5!c!2!cd=e | %161
 (gf)e.d | .c.d.e.!1!f | (^fg/) z/ (fg/) z/ | !3!=a4 | !5!g4 x/ | !5!f4 | x4 | d4 | c2 z2 :: %170
[K:C]"^Var. VII" c2 .c2 | .g2 (!4!g2 |"^leg.""^stacc." a4) | f2 (e2 | !3!f4) | !4!e2 x !5!c | %176
 (cBAB) | c2 z2 :: .g2 .g2 | .f2 f2 | e2 e>f | (e2 d2) | !4!c2 c2 | c(BAB | c)(!2!cde | %185
 f).!5!g.!3!ab | c'2 c'2 | g2 g2 | a2 !5!a2 | g2 !3!e>g | f2 !3!d>f | e2 c2 | (cBAB) | [Gc]2 z2 :: %194
[M:2/4]"^Var. VIII" z/ !1!E/c/E/ z/ E/G/E/ | z/ !1!E/c/E/ z/ E/c/E/ | z/ F/c/F/ z/ F/c/F/ | g2 x2 | %198
 z/ A/[d^f]/A/ z/ _A/[d=f]/A/ | z/ G/[ce]/G/ z/ =A/[c_e]/A/ | z/ G/[cd]/G/ z/ F/[Bd]/F/ | %201
 [EGc]2 z2 :: z/ E/c/E/ z/ E/c/E/ | z/ D/c/D/ z/ D/B/D/ | e2 x2 | z/ A/[cd]/A/ z/ _A/[Bd]/A/ | %206
 z/ G/[c=e]/G/ z/ G/[^cg]/G/ | z/ A/[d^f]/A/ z/ _A/[d=f]/A/ | z/ G/[ce]/G/ z/ !1!=A/!4![c_e]/A/ | %209
 !5![Bd]/c/B/A/ G/!3!F/E/D/ | z/ E/c/E/ z/ E/G/E/ | z/ E/c/E/ z/ E/c/E/ | a2 F/c/F/ a2 F/c/F/ | %213
 g2 x2 | z/ A/[d^f]/A/ z/ _A/[d=f]/A/ | z/ G/[ce]/G/ z/ =A/[c_e]/A/ | z/ G/[cd]/G/ z/ =F/[Bd]/F/ | %217
 [EGc]2 z2 :| %218
V:2
!mf! C,2 !1!C2 | !2!E2 C2 | F2 C2 | E2 C2 | !1!D2 B,2 | !1!C2 A,2 | F,2 !1!G,2 | C,4 :: E2 G,2 | %9
 D2 G,2 | C2 G,2 | B,2 G,2 | E2 G,2 | D2 G,2 | C2 C>D | (C2 B,2) | C,2 C2 | E2 C2 | F2 C2 | E2 C2 | %20
 D2 B,2 | C2 A,2 | F,2 G,2 | C,4 ::[M:2/4] (C,2 C2 | !2!E2 C2 | F2 C2) | [CE]2 z3/2 ^C/ | %28
 D2 z3/2 B,/ | C2 z3/2 !1!A,/ | F,2 G,2 |1 CG, E,G, :|2 C2 C,2 |: (E2 G,2) | (D2 G,2) | (C2 G,2 | %36
 F2 G,2) | [G,E]4 | [G,D]4 | [G,C]2 z3/2 C/ | E>C B,2 | (C,2 C2 | E2 C2 | F2 C2) | [CE]2 z3/2 ^C/ | %45
 D2 z3/2 B,/ | C2 z3/2 A,/ | F,2 G,2 | C2 C,2 ::[M:2/4] C,/C/!3!B,/!2!C/ D/C/B,/!1!C/ | %50
 E,/!1!C/!3!B,/!2!C/ D/C/B,/!1!C/ | F,/C/B,/C/ D/C/B,/C/ | C,/C/B,/C/ D/C/B,/C/ | %53
 A,,/A,/^G,/A,/ B,,/B,/^A,/B,/ | C,/C/B,/C/ A,,/A,/^G,/A,/ | F,,/F,/E,/F,/ G,,/G,/^F,/G,/ | %56
 C,,2 C,2 :| G,/!1!E/!3!^D/!2!E/ F/E/D/E/ | G,/=D/^C/D/ E/D/C/D/ | G,/G/^F/G/ A/G/F/!1!G/ | %60
 G,/=F/E/F/ G/F/E/F/ | G,/E/^D/E/ F/E/D/E/ | G,/=D/^C/D/ E/D/C/D/ | %63
 !5!G,/!1!=C/!3!B,/C/ D/C/B,/!1!C/ | !5!G,/!2!B,/^A,/B,/ C/B,/A,/!1!B,/ | C,/C/B,/C/ D/C/B,/C/ | %66
 E,/C/B,/C/ D/C/B,/C/ | F,/C/B,/C/ D/C/B,/C/ | C,/C/B,/C/ ^C,/^C/=B,/C/ | %69
 D,/D/^C/D/ B,,/B,/^A,/B,/ | C,/C/B,/C/ A,,/A,/^G,/A,/ | F,,/F,/E,/F,/ G,,/G,/^F,/G,/ | C,,2 C,2 :: %73
[M:2/4] z C E2 | z E C2 | z F C2 | z E C2 | D z B, z | C z A, z | F, z G, z | z C C,2 :: z E G,2 | %82
 z D G,2 | z C G,2 | z B, G,2 | z E G,2 | z D G,2 | z C G,2 | z B, G,2 | z (C,/E,/ G,2) | %90
 z (C/E/ G2) | z (F/A/ C2) | z (E/G/ C2) | D z B, z | C z E, z | F, z G, z | C z C, z :: %97
[M:2/4] !1!C,/!3!B,,/!1!C,/!3!B,,/ C,/B,,/C,/B,,/ | C,/B,,/C,/B,,/ C,/!2!D,/E,/C,/ | %99
 F,/E,/F,/E,/ F,/!4!G,/A,/B,/ | !1!C/!3!B,/C/B,/ !1!C/!2!D/E/C/ | !1!D/^C/D/=C/ !1!B,/A,/B,/G,/ | %102
 !1!C/B,/C/B,/ !1!A,/^G,/A,/=G,/ | !1!F,/E,/F,/D,/ G,/^F,/G,/G,,/ | !1!C,/!2!G,,/E,,/G,,/ C,,2 :: %105
 [G,,E,]2 [G,,E,]2 | [G,,D,F,]2 [G,,D,F,]2 | [G,,C,E,]2 [G,,C,E,]2 | [G,,B,,D,]2 [G,,B,,D,]2 | %109
 [G,,E,G,]2 [G,,E,G,]2 | [G,,D,F,]2 [G,,D,F,]2 | [G,,C,E,]2 [G,,C,E,]2 | [G,,B,,D,]2 z2 | %113
 !1!C,/!3!B,,/!1!C,/B,,/ C,/B,,/C,/B,,/ | C,/B,,/C,/B,,/ C,/D,/E,/C,/ | %115
 F,/E,/F,/E,/ F,/!4!G,/A,/B,/ | C/B,/C/B,/ C/!2!D/E/C/ | !1!D/^C/D/=C/ !1!B,/A,/B,/G,/ | %118
 C/B,/C/B,/ !1!A,/^G,/A,/=G,/ | !1!F,/E,/F,/D,/ G,/^F,/G,/G,,/ | C,/G,,/E,,/G,,/ C,,2 :: %121
[M:2/4] [C,,C,]4 | (E,2 C,2) | (F,2 C,2) | E,2 [C,C]2 | [A,,A,]2 [B,,B,]2 | [^G,,^G,]2 [A,,A,]2 | %127
 [F,,F,]2 [=G,,=G,]2 | [C,,C,]2 z2 :| [G,E]4 | [G,D]4 | [G,C]4 | [G,B,]4 | [G,E]4 | [G,D]4 | %135
 [G,C]4 | [G,B,]4 | [C,,C,]4 | (E,2 C,2) | (F,2 C,2) | E,2 [C,C]2 | [A,,A,]2 [B,,B,]2 | %142
 [^G,,^G,]2 [A,,A,]2 | [F,,F,]2 [=G,,=G,]2 | [C,,C,]2 z2 :| x4 |:[K:Eb] x4 |[K:treble] x4 | %148
 .!5!F.G.AB | c2 c2 |[K:bass]"^stacc." !3!G,=A,=B,G, | CG,_A,E, | !2!F,D,G,G,, | C,2 C,,2 :: %154
 [G,,G,]4- | [G,,G,]4 | G,4 | =A,2 =B,2 | C [G,,G,][_A,,_A,][G,,G,] | [^F,,^F,]2 [=F,,=F,]2 | %160
 [=E,,=E,]2 [_E,,_E,]2 | [D,,D,]2 [G,,,G,,]2 | [C,,C,]2 z2 |[K:treble] x4 | .!5!F.G.A.B | %165
 (!2!=Bc/) x/4 z/ (Bc/) x/4 z/ |[K:bass] !3!G,=A,=B,G, | CG,_A,E, | F,D,G,G,, | C,2 C,,2 :: %170
[K:C] x4 |[K:treble] x4 | F2 F2 | c2 c2 |[K:bass] G,2 G,2 | C2 C2 | [G,,,G,,]2 [G,,,G,,]2 | %177
 C,,2 z2 :: x4 |[K:treble] x4 | [Gc]2 [Gc]2 | [FB]2 [FB]2 |[K:bass] [G,E]2 [G,E]2 | [F,D]2 [F,D]2 | %184
 [G,,E,]2 [G,,E,]2 | [F,,D,]2 [F,,D,]2 | [C,,C,]2 z2 | x4 | x4 | x4 | G2 G2 | C2 !1!!1!C2 | %192
 [G,,G,]2 [G,,G,]2 | [C,,C,]2 z2 ::[M:2/4] [C,,E,]2 x2 | x4 | x4 | x2 [^C,^C]2 | [D,D]2 [B,,B,]2 | %199
 [=C,=C]2 [^F,,^F,]2 | [G,,G,]2 G,,2 | C,2 C,,2 :: [G,,,G,,]2 x2 | z4 | [G,,G,]2 x2 | %205
 [^F,,^F,]2 [=F,,=F,]2 | [E,,E,]2 [_E,,_E,]2 | [D,,D,]2 [B,,,B,,]2 | [C,,C,]2 [^F,,,^F,,]2 | %209
 [E,,,G,,]2 z2 | [C,,C,]2 x2 | x4 | x7 | x2 [^C,^C]2 | [D,D]2 [B,,B,]2 | [=C,=C]2 [^F,,^F,]2 | %216
 [G,,G,]2 G,,2 | C,2 C,,2 :| %218
V:3
 x4 | x4 | x4 | x4 | x4 | x4 | x4 | x4 :: x4 | x4 | x4 | x4 | x4 | x4 | x4 | G,4 | x4 | x4 | x4 | %19
 x4 | x4 | x4 | x4 | x4 ::[M:2/4] x4 | x4 | x4 | x4 | x4 | x4 | x4 |1 x4 :|2 x4 |: x4 | x4 | x4 | %36
 x4 | x4 | x4 | x4 | G,4 | x4 | x4 | x4 | x4 | x4 | x4 | x4 | x4 ::[M:2/4] x4 | x4 | x4 | x4 | x4 | %54
 x4 | x4 | x4 :| x4 | x4 | x4 | x4 | x4 | x4 | x4 | x4 | x4 | x4 | x4 | x4 | x4 | x4 | x4 | x4 :: %73
[M:2/4] x4 | x4 | x4 | x4 | x4 | x4 | x4 | x4 :: x4 | x4 | x4 | x4 | x4 | x4 | x4 | x4 | x4 | x4 | %91
 x4 | x4 | x4 | x4 | x4 | x4 ::[M:2/4] x4 | x4 | x4 | x4 | x4 | x4 | x4 | x4 :: x4 | x4 | x4 | x4 | %109
 x4 | x4 | x4 | x4 | x4 | x4 | x4 | x4 | x4 | x4 | x4 | x4 ::[M:2/4] x4 | x4 | x4 | x4 | x4 | x4 | %127
 x4 | x4 :| x4 | x4 | x4 | x4 | x4 | x4 | x4 | x4 | x4 | x4 | x4 | x4 | x4 | x4 | x4 | x4 :| x4 |: %146
[K:Eb] x4 |[K:treble] x4 | x4 | x4 |[K:bass] x4 | x4 | x4 | x4 :: x4 | x4 | G,4 | G,4 | z x3 | x4 | %160
 x4 | x4 | x4 |[K:treble] x4 | x4 | x9/2 |[K:bass] x4 | x4 | x4 | x4 ::[K:C] x4 |[K:treble] x4 | %172
 x4 | x4 |[K:bass] x4 | x4 | x4 | x4 :: x4 |[K:treble] x4 | x4 | x4 |[K:bass] x4 | x4 | x4 | x4 | %186
 x4 | x4 | x4 | x4 | x4 | x4 | x4 | x4 ::[M:2/4] x4 | x4 | x4 | x4 | x4 | x4 | x4 | x4 :: x4 | x4 | %204
 x4 | x4 | x4 | x4 | x4 | x4 | x4 | x4 | x7 | x4 | x4 | x4 | x4 | x4 :| %218
V:4
 x4 | x4 | x4 | x4 | x4 | x4 | x4 | x4 :: x4 | x4 | x4 | x4 | x4 | x4 | x4 | x4 | x4 | x4 | x4 | %19
 x4 | x4 | x4 | x4 | x4 ::[M:2/4] x4 | x4 | x4 | x4 | x4 | x4 | x4 |1 x4 :|2 x4 |: x4 | x4 | x4 | %36
 x4 | x4 | x4 | x4 | x4 | x4 | x4 | x4 | x4 | x4 | x4 | x4 | x4 ::[M:2/4] x4 | x4 | a4 | !4!g4 | %53
 x4 | x4 | x4 | x4 :| x4 | x4 | x4 | x4 | x4 | x4 | x4 | x4 | x4 | x4 | x4 | x4 | x4 | x4 | x4 | %72
 x4 ::[M:2/4] x4 | x4 | x4 | x4 | x4 | x4 | x4 | x4 :: x4 | x4 | x4 | x4 | x4 | x4 | x4 | x4 | x4 | %90
 x4 | x4 | x4 | x4 | x4 | x4 | x4 ::[M:2/4] x4 | x4 | x4 | x4 | x4 | x4 | x4 | x4 :: x4 | x4 | x4 | %108
 x4 | x4 | x4 | x4 | x4 | x4 | x4 | x4 | x4 | x4 | x4 | x4 | x4 ::[M:2/4] x4 | x4 | x4 | x4 | x4 | %126
 x4 | x4 | x4 :| x4 | x4 | x4 | x4 | x4 | x4 | x4 | x4 | x4 | x4 | x4 | x4 | x4 | x4 | x4 | x4 :| %145
 x4 |:[K:Eb] x4 | x4 | x4 | !5!g4 | G4 | !4!e4 | x4 | x4 :: x4 | x4 | x4 | x4 | x4 | x4 | x4 | x4 | %162
 x4 | x4 | x4 | x9/2 | G4 | !4!e4 | x4 | x4 ::[K:C] x4 | x4 | x4 | x4 | x4 | x4 | x4 | x4 :: x4 | %179
 x4 | x4 | x4 | x4 | x4 | x4 | x4 | x4 | x4 | x4 | x4 | x4 | x4 | x4 | x4 ::[M:2/4] x4 | x4 | x4 | %197
 x4 | x4 | x4 | x4 | x4 :: x4 | x4 | x4 | x4 | x4 | x4 | x4 | x4 | x4 | x4 | x7 | x4 | x4 | x4 | %216
 x4 | x4 :| %218
V:5
 x4 | x4 | x4 | x4 | x4 | x4 | x4 | x4 :: x4 | x4 | x4 | x4 | x4 | x4 | x4 | x4 | x4 | x4 | x4 | %19
 x4 | x4 | x4 | x4 | x4 ::[M:2/4] x4 | x4 | x4 | x4 | x4 | x4 | x4 |1 x4 :|2 x4 |: x4 | x4 | x4 | %36
 x4 | x4 | x4 | x4 | x4 | x4 | x4 | x4 | x4 | x4 | x4 | x4 | x4 ::[M:2/4] x4 | x4 | c4 | c4 | x4 | %54
 x4 | x4 | x4 :| x4 | x4 | x4 | x4 | x4 | x4 | x4 | x4 | x4 | x4 | x4 | x4 | x4 | x4 | x4 | x4 :: %73
[M:2/4] x4 | x4 | x4 | x4 | x4 | x4 | x4 | x4 :: x4 | x4 | x4 | x4 | x4 | x4 | x4 | x4 | x4 | x4 | %91
 x4 | x4 | x4 | x4 | x4 | x4 ::[M:2/4] x4 | x4 | x4 | x4 | x4 | x4 | x4 | x4 :: x4 | x4 | x4 | x4 | %109
 x4 | x4 | x4 | x4 | x4 | x4 | x4 | x4 | x4 | x4 | x4 | x4 ::[M:2/4] x4 | x4 | x4 | x4 | x4 | x4 | %127
 x4 | x4 :| x4 | x4 | x4 | x4 | x4 | x4 | x4 | x4 | x4 | x4 | x4 | x4 | x4 | x4 | x4 | x4 :| x4 |: %146
[K:Eb] x4 | x4 | x4 | x4 | x4 | x4 | x4 | x4 :: x4 | x4 | x4 | x4 | x4 | x4 | x4 | x4 | x4 | x4 | %164
 x4 | x9/2 | x4 | x4 | x4 | x4 ::[K:C] x4 | x4 | x4 | x4 | x4 | x4 | x4 | x4 :: x4 | x4 | x4 | x4 | %182
 x4 | x4 | x4 | x4 | x4 | x4 | x4 | x4 | x4 | x4 | x4 | x4 ::[M:2/4] x4 | x4 | x4 | x4 | x4 | x4 | %200
 x4 | x4 :: x4 | x4 | x4 | x4 | x4 | x4 | x4 | x4 | x4 | x4 | x7 | x4 | x4 | x4 | x4 | x4 :| %218
V:6
 x4 | x4 | x4 | x4 | x4 | x4 | x4 | x4 :: x4 | x4 | x4 | x4 | x4 | x4 | x4 | x4 | x4 | x4 | x4 | %19
 x4 | x4 | x4 | x4 | x4 ::[M:2/4] x4 | x4 | x4 | x4 | x4 | x4 | x4 |1 x4 :|2 x4 |: x4 | x4 | x4 | %36
 x4 | x4 | x4 | x4 | x4 | x4 | x4 | x4 | x4 | x4 | x4 | x4 | x4 ::[M:2/4] x4 | x4 | x4 | x4 | x4 | %54
 x4 | A2 !2!G>F | !2![EG]2 x2 :| x4 | x4 | x4 | B4 | x4 | x4 | G3 x | G4 | %65
 [EG]2 c/4d/4c/4d/8c/8B/8c/8 x/4 B/4c/4 | x4 | [cg]2 [cf]2 | [cf]2 [_Be]2 | [Ae]2 ([_Ad]2 | %70
 [Gd]2) (([=Ac]2 | A2)) !2![GBd]>F | x4 ::[M:2/4] x4 | x4 | x4 | x4 | x4 | x4 | x4 | x4 :: x4 | %82
 x4 | x4 | x4 | x4 | x4 | x4 | x4 | x4 | x4 | x4 | x4 | x4 | x4 | x4 | x4 ::[M:2/4] x4 | x4 | x4 | %100
 x4 | x4 | x4 | x4 | x4 :: x4 | x4 | x4 | x4 | x4 | x4 | x4 | x4 | x4 | x4 | x4 | x4 | x4 | x4 | %119
 x4 | x4 ::[M:2/4] x4 | x4 | x4 | x4 | x4 | x4 | x4 | x4 :| x4 | x4 | x4 | x4 | x4 | x4 | x4 | x4 | %137
 x4 | x4 | x4 | x4 | x4 | x4 | x4 | x4 :| x4 |:[K:Eb] x4 | x4 | g2 (!1!f2 | f2) (!3!e2 | %150
 e2) !3!d2- | [Gd]2 (c2 | c2) =B2 | x4 :: G4 | =A2 !1!=B2 | cG_A!1!G | !2!^F2 !2!=F2 | =E2 !2!_E2 | %159
 [E=A]2 _A2 | !1!G4 | G4 | x4 | x4 | !2!g2 =f2- | =f2 !3!=e2- x/ | e2 !3!d2- | [Gd]2 c2- | c2 =B2 | %169
 x4 ::[K:C] x4 | x4 | g2 f2 | x4 | e2 d2- | d2 c z | [DF]4 | [EG]2 x2 :: x4 | x4 | x4 | x4 | %182
 !1!G4 | G4 | G4 | G2 z2 | x4 | x4 | f2 !3!f2 | c2 c2 | B2 B2 | c2 [EG]2 | [DF]4 | E2 x2 :: %194
[M:2/4] x/ x/ x !5!c2 | !2!g2 !3!g2 | a2 a2 | z/ E/c/E/ z/ _B/[eg]/B/ | x4 | x4 | x4 | x4 :: %202
 x2 !2!g2 | ^f2 !2!=f2 | z/ C/c/C/ z/ G/[c_e]/G/ | x4 | x4 | x4 | x4 | x4 | x2 c2 | g2 g2 | x7 | %213
 z/ E/c/E/ z/ _A/[df]/A/ | x4 | x4 | x4 | x4 :| %218

